!!!SOCIAL_FUNCTION:	dream songs
!!!PDT:	1913
!!!OTL: No_135_Dream_Song.krn
!!!REG: Great_Lakes
!!!LANG: Non-Tone
!!!LING_GROUP: Algonquin
**kern	**kern
*staff2	*staff1
=1-	=1-
*clefF4	*clefG2
*k[b-e-a-]	*k[b-e-a-]
*M2/4	*M2/4
12GG^/	8.g/L
12r	.
12GG/	.
.	16f/Jk
12GG^/	16e-/LK
.	8.c/J
12r	.
12GG/	.
=2||	=2||
*M3/4	*M3/4
2.r	4.c/
.	8B-/
.	4c/
=3||	=3||
*M2/4	*M2/4
2r	8.g/L
.	16f/Jk
.	16e-/LK
.	8.c/J
=4	=4
2r	8.e-/L
.	16c/Jk
.	16c/LK
.	8.B-/J
*	*clefF4
=5	=5
2r	8B-\L
.	8B-\J
.	16G\LK
.	8G\
.	16G\Jk
=6||	=6||
*M3/4	*M3/4
2.r	2.G\
=7||	=7||
*M2/4	*M2/4
2r	8.c\L
.	16B-\Jk
.	16B-\LK
.	8.G\J
=8	=8
2r	8.c\L
.	16B-\Jk
.	16B-\LK
.	8.G\J
=9	=9
2r	16B-\LK
.	8.B-\J
.	16G\LK
.	8G\
.	16G\Jk
=10	=10
2r	2G\
==	==
*-	*-
